X: 4
T: The House In The Glen
R: jig
M: 6/8
L: 1/8
K: Dmaj
d2 B |:AFA DFE | DEF A2 d | BGG dGG | BGG BAd |
AF/G/A DFE | DEF A2 B | def gfe | fdB BdB :|
A2 d fd/e/f | ede fdB | Add fdd | edB BdB |
Add fdf |ede fdd | a2 f g2 e | fdB BdB |
Add fdd | edd fdd | Add fdd | edB BdB |
A2 d fdf |ede fdd | f/g/ a2 g2 e | fdB BdB |]


Tune 2060	Setting 15457

